X: 2028
T: FILL THE STOUP
R: Reel.
%R: reel
B: James Kerr "Merry Melodies" v.2 p.6 #28
Z: 2016 John Chambers <jc:trillian.mit.edu>
M: C
L: 1/8
K: A
ua |\
e2c2 eAAa | e2c2 fBBa |\
e2c2 eAcA | dfce fBBa |\
eaca eAAa | eaca fBBa |
eaca eaca | dfce fBB |:\
ua |\
eAcA eAAf | eAcA fBBa |\
eAcA eAcA | dfce fBB :|

%%sep 1 1 500
%%sep 1 1 500

